src/assets/ListLogo.svg

<svg width="26" height="170" viewBox="0 0 26 170" fill="none" xmlns="http://www.w3.org/2000/svg">
<path d="M13.331 60.6601L14.121 60.6601L14.121 59.1401L15.051 59.1401L15.051 60.6601L20.001 60.6601L20.001 61.6601L15.051 61.6601L15.051 62.7201L14.121 62.7201L14.121 61.6601L13.291 61.6601C12.201 61.6601 11.621 61.0501 11.621 60.1401C11.621 59.7601 11.761 59.2401 12.011 58.8601L12.801 59.2201C12.621 59.5301 12.531 59.7601 12.531 60.0201C12.531 60.4201 12.741 60.6601 13.331 60.6601ZM20.151 55.815C20.151 57.245 19.231 58.515 17.461 58.515L16.661 58.515C14.901 58.515 13.971 57.245 13.971 55.815C13.971 54.375 14.901 53.105 16.661 53.105L17.461 53.105C19.231 53.105 20.151 54.375 20.151 55.815ZM19.231 55.815C19.231 54.905 18.611 54.115 17.431 54.115L16.691 54.115C15.511 54.115 14.891 54.905 14.891 55.815C14.891 56.735 15.511 57.515 16.691 57.515L17.431 57.515C18.611 57.515 19.231 56.725 19.231 55.815ZM13.971 49.3501C13.971 49.0701 14.021 48.7801 14.101 48.5701L15.001 48.8101C14.931 49.0401 14.891 49.3001 14.891 49.5201C14.891 50.2301 15.541 50.8001 16.481 50.8001L20.001 50.8001L20.001 51.8001L14.121 51.8001L14.121 50.8701L15.001 50.8201C14.381 50.5401 13.971 50.0401 13.971 49.3501ZM13.971 39.0593C13.971 37.8693 14.931 37.0593 16.421 37.0593L20.001 37.0593L20.001 38.0693L16.431 38.0693C15.401 38.0693 14.891 38.5693 14.891 39.3293C14.891 40.0793 15.491 40.6293 16.451 40.6293L20.001 40.6293L20.001 41.6093L16.431 41.6093C15.391 41.6093 14.881 42.1093 14.881 42.8693C14.881 43.6193 15.431 44.1693 16.451 44.1693L20.001 44.1693L20.001 45.1693L14.121 45.1693L14.121 44.2393L14.911 44.1893C14.361 43.8693 13.971 43.3193 13.971 42.5993C13.971 41.7993 14.401 41.1893 15.131 40.8693C14.451 40.5393 13.971 39.8893 13.971 39.0593ZM13.971 33.3276C13.971 31.9676 14.811 30.9776 16.251 30.9776L20.001 30.9776L20.001 31.8976L19.231 31.9476C19.791 32.2676 20.151 32.8776 20.151 33.6676L20.151 34.0576C20.151 35.1476 19.381 35.9576 18.291 35.9576C17.241 35.9576 16.491 35.1676 16.491 33.7276L16.491 31.9676L16.301 31.9676C15.461 31.9676 14.891 32.4476 14.891 33.3976C14.891 34.0676 15.201 34.5576 15.721 34.8276L15.321 35.7276C14.541 35.3076 13.971 34.4176 13.971 33.3276ZM19.231 33.8676L19.231 33.4876C19.231 32.7476 18.791 32.0576 18.061 31.9676L17.371 31.9676L17.371 33.6876C17.371 34.5576 17.741 34.9676 18.301 34.9676C18.871 34.9676 19.231 34.5276 19.231 33.8676ZM13.971 26.7238C13.971 25.4138 14.931 24.5038 16.421 24.5038L20.001 24.5038L20.001 25.5138L16.471 25.5138C15.431 25.5138 14.891 26.0538 14.891 26.9838C14.891 27.8738 15.521 28.5638 16.451 28.5638L20.001 28.5638L20.001 29.5638L14.121 29.5638L14.121 28.6338L14.971 28.5838C14.371 28.2138 13.971 27.5638 13.971 26.7238ZM13.971 20.769C13.971 19.409 14.811 18.419 16.251 18.419L20.001 18.419L20.001 19.339L19.231 19.389C19.791 19.709 20.151 20.319 20.151 21.109L20.151 21.499C20.151 22.589 19.381 23.399 18.291 23.399C17.241 23.399 16.491 22.609 16.491 21.169L16.491 19.409L16.301 19.409C15.461 19.409 14.891 19.889 14.891 20.839C14.891 21.509 15.201 21.999 15.721 22.269L15.321 23.169C14.541 22.749 13.971 21.859 13.971 20.769ZM19.231 21.309L19.231 20.929C19.231 20.189 18.791 19.499 18.061 19.409L17.371 19.409L17.371 21.129C17.371 21.999 17.741 22.409 18.301 22.409C18.871 22.409 19.231 21.969 19.231 21.309ZM14.921 12.8852L14.121 12.8252L14.121 11.8952L19.201 11.8952C20.961 11.8952 21.851 13.0952 21.851 14.5752C21.851 15.6852 21.491 16.6552 20.671 17.0752L20.271 16.0652C20.751 15.8252 21.001 15.2352 21.001 14.5752C21.001 13.5052 20.321 12.9052 19.141 12.9052L18.751 12.9052C19.331 13.3652 19.661 14.0752 19.661 14.8452C19.661 16.0452 18.691 17.2552 17.111 17.2552L16.521 17.2552C14.951 17.2552 13.971 16.0452 13.971 14.8452C13.971 14.0552 14.311 13.3352 14.921 12.8852ZM18.771 14.5652C18.771 13.6452 18.141 12.9052 17.081 12.9052L16.551 12.9052C15.491 12.9052 14.861 13.6552 14.861 14.5652C14.861 15.5052 15.491 16.2552 16.551 16.2552L17.081 16.2552C18.141 16.2552 18.771 15.5052 18.771 14.5652ZM16.781 5.33389L17.421 5.33389L17.421 9.66389C18.631 9.64389 19.261 8.87389 19.261 7.97389C19.261 7.26389 18.911 6.61389 18.231 6.34389L18.531 5.42389C19.601 5.79389 20.151 6.83389 20.151 7.97389C20.151 9.39389 19.211 10.6439 17.391 10.6439L16.721 10.6439C14.911 10.6439 13.971 9.41389 13.971 7.99389C13.971 6.54389 14.921 5.33389 16.781 5.33389ZM16.571 9.65389L16.571 6.33389C15.531 6.33389 14.871 7.04389 14.871 7.99389C14.871 8.86389 15.451 9.59389 16.571 9.65389ZM13.971 1.58647C13.971 1.30647 14.021 1.01647 14.101 0.806467L15.001 1.04647C14.931 1.27647 14.891 1.53647 14.891 1.75647C14.891 2.46647 15.541 3.03647 16.481 3.03647L20.001 3.03647L20.001 4.03647L14.121 4.03647L14.121 3.10647L15.001 3.05647C14.381 2.77647 13.971 2.27647 13.971 1.58647Z" fill="#AAAAAA"/>
<path d="M3.00007 90.669C3.00007 90.669 3.00007 90.6786 3.00007 90.6834C3.00007 90.6834 3.00007 90.6834 3.00007 90.6882C3.00007 90.6882 3.00007 90.693 3.00007 90.6978C3.00007 92.0194 4.04026 93.091 5.323 93.091C6.60574 93.091 7.64593 92.0194 7.64593 90.6978C7.64593 89.3763 6.60574 88.3046 5.323 88.3046C4.04026 88.3046 3.01407 89.3619 3.00007 90.669Z" fill="#1F1F1F"/>
<path d="M2.8648 151.989C2.8648 153.2 3.09337 154.319 3.54582 155.319C3.85835 156.016 4.26882 156.64 4.75393 157.183C4.25949 157.664 3.85368 158.226 3.54116 158.861C3.0887 159.779 2.86014 160.821 2.86014 161.96C2.86014 162.897 3.01873 163.782 3.33592 164.594C3.49918 165.017 3.70442 165.416 3.94231 165.781C3.83502 165.858 3.73707 165.949 3.64378 166.045C3.23797 166.478 3.03739 167.025 3.03739 167.674C3.03739 168.323 3.24729 168.88 3.66244 169.322C4.08224 169.774 4.63266 170 5.29502 170L18.2204 170C18.8594 170 19.4005 169.774 19.8296 169.332C20.2588 168.89 20.478 168.333 20.478 167.674C20.478 167.016 20.2588 166.429 19.8203 165.992C19.3912 165.564 18.8548 165.348 18.2204 165.348L10.0295 165.348C9.13858 165.348 8.4389 165.089 7.88382 164.56C7.3474 164.046 7.08619 163.388 7.08619 162.556C7.08619 161.725 7.31009 161.148 7.76721 160.692C8.22433 160.235 8.94733 160.004 9.91755 160.004L18.225 160.004C18.8641 160.004 19.4052 159.779 19.8343 159.336C20.2634 158.894 20.4827 158.337 20.4827 157.678C20.4827 157.02 20.2634 156.429 19.825 155.997C19.3958 155.569 18.8594 155.353 18.225 155.353L10.0342 155.353C9.14324 155.353 8.44356 155.093 7.88849 154.564C7.35207 154.05 7.09085 153.406 7.09085 152.589C7.09085 151.772 7.31475 151.181 7.77187 150.725C8.22899 150.268 8.95199 150.038 9.92221 150.038L18.2297 150.038C18.8688 150.038 19.4098 149.812 19.839 149.37C20.2681 148.927 20.4873 148.37 20.4873 147.712C20.4873 147.053 20.2681 146.462 19.8296 146.03C19.4005 145.602 18.8641 145.386 18.2297 145.386L9.92221 145.386C7.75321 145.386 6.01801 145.996 4.77259 147.202C3.51317 148.423 2.87413 150.033 2.87413 151.989L2.8648 151.989Z" fill="#F6AC36"/>
<path d="M3.90499 129.489C3.17266 130.729 2.80416 132.209 2.80416 133.881C2.80416 135.553 3.18665 137.11 3.93764 138.456C4.69329 139.806 5.76147 140.873 7.11418 141.633C8.45289 142.382 9.97819 142.762 11.6527 142.762C13.3273 142.762 14.8619 142.358 16.196 141.56C17.5347 140.763 18.5982 139.633 19.3492 138.216C20.0955 136.808 20.4733 135.198 20.4733 133.434C20.4733 132.435 20.2914 131.377 19.9416 130.291C19.5871 129.2 19.116 128.273 18.5469 127.538C18.1691 127.014 17.6513 126.74 17.0543 126.74C16.6391 126.74 16.0281 126.879 15.4916 127.542C15.1651 127.913 15.0019 128.393 15.0019 128.975C15.0019 129.556 15.1651 130.032 15.4823 130.445C15.7389 130.791 15.9628 131.252 16.1493 131.819C16.3359 132.382 16.4292 132.925 16.4292 133.434C16.4292 134.775 16.0794 135.866 15.3564 136.774C14.8293 137.432 14.2042 137.889 13.4486 138.163L13.4486 127.807C13.4486 127.196 13.2527 126.677 12.8702 126.264C12.483 125.851 11.9746 125.63 11.3962 125.63C9.75429 125.63 8.27097 125.961 6.98823 126.61C5.6775 127.273 4.64198 128.239 3.90965 129.484L3.90499 129.489ZM6.85296 133.881C6.85296 132.771 7.16082 131.906 7.79519 131.238C8.27564 130.733 8.8587 130.383 9.57704 130.162L9.57704 138.115C8.8727 137.855 8.29896 137.456 7.82318 136.899C7.17015 136.135 6.85296 135.145 6.85296 133.881Z" fill="#F6AC36"/>
<path d="M3.97029 100.727C3.19598 102.111 2.80883 103.659 2.80883 105.331C2.80883 107.003 3.20065 108.541 3.97496 109.911C4.74927 111.275 5.8221 112.366 7.16082 113.164C8.5042 113.957 10.0155 114.361 11.6574 114.361L23.7432 114.361C24.4055 114.361 24.9559 114.135 25.3757 113.683C25.7909 113.241 26.0008 112.688 26.0008 112.035C26.0008 111.381 25.7862 110.795 25.3664 110.362C24.9466 109.93 24.4009 109.709 23.7432 109.709L18.8781 109.709C19.1953 109.276 19.4751 108.805 19.7037 108.31C20.2168 107.21 20.478 106.004 20.478 104.735C20.478 103.154 20.0862 101.698 19.3165 100.41C18.5516 99.1269 17.4787 98.1033 16.126 97.368C14.7873 96.6424 13.2853 96.2723 11.6527 96.2723C10.0202 96.2723 8.5042 96.6712 7.16082 97.4545C5.81744 98.2427 4.73994 99.3431 3.96563 100.727L3.97029 100.727ZM7.5713 107.628C7.16548 106.941 6.96957 106.191 6.96957 105.331C6.96957 104.471 7.17015 103.716 7.5713 103.034C7.97244 102.351 8.53219 101.804 9.24119 101.405C9.95486 101.001 10.7712 100.799 11.6574 100.799C12.5437 100.799 13.3506 101.001 14.055 101.405C14.7546 101.804 15.3144 102.351 15.7155 103.034C16.112 103.711 16.3173 104.485 16.3173 105.331C16.3173 106.177 16.1214 106.941 15.7155 107.628C15.3144 108.31 14.7593 108.853 14.0643 109.238C13.36 109.632 12.553 109.829 11.6574 109.829C10.7618 109.829 9.9502 109.627 9.23186 109.233C8.52752 108.844 7.96778 108.301 7.56663 107.623L7.5713 107.628Z" fill="#1F1F1F"/>
<path d="M8.84937 90.6978C8.84937 91.3514 9.05928 91.904 9.47442 92.3462C9.89422 92.7979 10.4446 93.0237 11.107 93.0237L18.225 93.0237C18.8641 93.0237 19.4052 92.7979 19.8343 92.3558C20.2634 91.9137 20.4827 91.3562 20.4827 90.6978C20.4827 90.0395 20.2634 89.4532 19.825 89.0159C19.3958 88.5882 18.8594 88.3719 18.225 88.3719L11.107 88.3719C10.4493 88.3719 9.90355 88.593 9.48375 89.0255C9.06394 89.458 8.84937 90.0202 8.84937 90.6978Z" fill="#1F1F1F"/>
<path d="M0.000791284 120.276C0.000791339 121.54 0.998997 122.569 2.22576 122.569L18.2577 122.569C19.4845 122.569 20.4827 121.54 20.4827 120.276C20.4827 119.013 19.4845 117.984 18.2577 117.984L2.22576 117.984C0.998997 117.984 0.000791228 119.013 0.000791284 120.276Z" fill="#F6AC36"/>
<path d="M16.9143 70.5095L10.5846 75.8245L6.71769 70.9227C6.31654 70.4181 5.77079 70.149 5.12709 70.149C4.58601 70.149 4.09623 70.3557 3.71374 70.7401C3.23796 71.1486 2.98608 71.7061 2.98608 72.3548C2.98608 72.9171 3.19132 73.4361 3.55515 73.8109L8.2943 79.6978L5.08977 79.6978C3.86301 79.6978 2.8648 80.7262 2.8648 81.9901C2.8648 83.2539 3.86301 84.2823 5.08977 84.2823L18.2577 84.2823C19.4845 84.2823 20.4827 83.2539 20.4827 81.9901C20.4827 80.7262 19.4845 79.6978 18.2577 79.6978L13.929 79.6978L13.4672 79.1596L19.6524 74.0031C20.1888 73.5706 20.4733 72.9795 20.4733 72.2971C20.4733 71.7733 20.2961 71.2832 19.9462 70.8266C19.5078 70.2884 18.9294 70.0001 18.2764 70.0001C17.7399 70.0001 17.2688 70.1779 16.9097 70.5143L16.9143 70.5095Z" fill="#1F1F1F"/>
<path d="M17.9638 121.915C17.9638 122.026 18.0525 122.117 18.1597 122.117C19.727 122.117 19.9463 120.622 19.9463 120.608C19.9602 120.502 19.8903 120.397 19.783 120.382C19.6757 120.368 19.5778 120.44 19.5638 120.55C19.5591 120.598 19.3818 121.718 18.1597 121.718C18.0525 121.718 17.9638 121.809 17.9638 121.92L17.9638 121.915Z" fill="white"/>
<path d="M17.5487 121.915C17.5487 121.801 17.4589 121.708 17.3481 121.708C17.2373 121.708 17.1475 121.801 17.1475 121.915C17.1475 122.029 17.2373 122.122 17.3481 122.122C17.4589 122.122 17.5487 122.029 17.5487 121.915Z" fill="white"/>
</svg>

<svg xmlns="http://www.w3.org/2000/svg" width="26" height="170" fill="none"><path fill="#AAA" d="M13.331 60.66h.79v-1.52h.93v1.52h4.95v1h-4.95v1.06h-.93v-1.06h-.83c-1.09 0-1.67-.61-1.67-1.52 0-.38.14-.9.39-1.28l.79.36c-.18.31-.27.54-.27.8 0 .4.21.64.8.64m6.82-4.845c0 1.43-.92 2.7-2.69 2.7h-.8c-1.76 0-2.69-1.27-2.69-2.7 0-1.44.93-2.71 2.69-2.71h.8c1.77 0 2.69 1.27 2.69 2.71m-.92 0c0-.91-.62-1.7-1.8-1.7h-.74c-1.18 0-1.8.79-1.8 1.7 0 .92.62 1.7 1.8 1.7h.74c1.18 0 1.8-.79 1.8-1.7m-5.26-6.465c0-.28.05-.57.13-.78l.9.24c-.07.23-.11.49-.11.71 0 .71.65 1.28 1.59 1.28h3.52v1h-5.88v-.93l.88-.05c-.62-.28-1.03-.78-1.03-1.47m0-10.29c0-1.19.96-2 2.45-2h3.58v1.01h-3.57c-1.03 0-1.54.5-1.54 1.26 0 .75.6 1.3 1.56 1.3h3.55v.98h-3.57c-1.04 0-1.55.5-1.55 1.26 0 .75.55 1.3 1.57 1.3h3.55v1h-5.88v-.93l.79-.05c-.55-.32-.94-.87-.94-1.59 0-.8.43-1.41 1.16-1.73-.68-.33-1.16-.98-1.16-1.81m0-5.732c0-1.36.84-2.35 2.28-2.35h3.75v.92l-.77.05c.56.32.92.93.92 1.72v.39c0 1.09-.77 1.9-1.86 1.9-1.05 0-1.8-.79-1.8-2.23v-1.76h-.19c-.84 0-1.41.48-1.41 1.43 0 .67.31 1.16.83 1.43l-.4.9c-.78-.42-1.35-1.31-1.35-2.4m5.26.54v-.38c0-.74-.44-1.43-1.17-1.52h-.69v1.72c0 .87.37 1.28.93 1.28.57 0 .93-.44.93-1.1m-5.26-7.144c0-1.31.96-2.22 2.45-2.22h3.58v1.01h-3.53c-1.04 0-1.58.54-1.58 1.47 0 .89.63 1.58 1.56 1.58h3.55v1h-5.88v-.93l.85-.05c-.6-.37-1-1.02-1-1.86m0-5.955c0-1.36.84-2.35 2.28-2.35h3.75v.92l-.77.05c.56.32.92.93.92 1.72v.39c0 1.09-.77 1.9-1.86 1.9-1.05 0-1.8-.79-1.8-2.23v-1.76h-.19c-.84 0-1.41.48-1.41 1.43 0 .67.31 1.16.83 1.43l-.4.9c-.78-.42-1.35-1.31-1.35-2.4m5.26.54v-.38c0-.74-.44-1.43-1.17-1.52h-.69v1.72c0 .87.37 1.28.93 1.28.57 0 .93-.44.93-1.1m-4.31-8.424-.8-.06v-.93h5.08c1.76 0 2.65 1.2 2.65 2.68 0 1.11-.36 2.08-1.18 2.5l-.4-1.01c.48-.24.73-.83.73-1.49 0-1.07-.68-1.67-1.86-1.67h-.39c.58.46.91 1.17.91 1.94 0 1.2-.97 2.41-2.55 2.41h-.59c-1.57 0-2.55-1.21-2.55-2.41 0-.79.34-1.51.95-1.96m3.85 1.68c0-.92-.63-1.66-1.69-1.66h-.53c-1.06 0-1.69.75-1.69 1.66 0 .94.63 1.69 1.69 1.69h.53c1.06 0 1.69-.75 1.69-1.69m-1.99-9.231h.64v4.33c1.21-.02 1.84-.79 1.84-1.69 0-.71-.35-1.36-1.03-1.63l.3-.92c1.07.37 1.62 1.41 1.62 2.55 0 1.42-.94 2.67-2.76 2.67h-.67c-1.81 0-2.75-1.23-2.75-2.65 0-1.45.95-2.66 2.81-2.66m-.21 4.32v-3.32c-1.04 0-1.7.71-1.7 1.66 0 .87.58 1.6 1.7 1.66m-2.6-8.068c0-.28.05-.57.13-.78l.9.24c-.07.23-.11.49-.11.71 0 .71.65 1.28 1.59 1.28h3.52v1h-5.88v-.93l.88-.05c-.62-.28-1.03-.78-1.03-1.47"/><path fill="#1F1F1F" d="M3 90.669v.029c0 1.321 1.04 2.393 2.323 2.393s2.323-1.072 2.323-2.393c0-1.322-1.04-2.393-2.323-2.393S3.014 89.362 3 90.669"/><path fill="#F6AC36" d="M2.865 151.989c0 1.211.228 2.33.68 3.33a7.2 7.2 0 0 0 1.209 1.864 6 6 0 0 0-1.213 1.678c-.452.918-.68 1.96-.68 3.099 0 .937.158 1.822.475 2.634.163.423.368.822.606 1.187a2.3 2.3 0 0 0-.298.264c-.406.433-.607.98-.607 1.629s.21 1.206.625 1.648c.42.452.97.678 1.633.678H18.22c.64 0 1.18-.226 1.61-.668.429-.442.648-.999.648-1.658s-.22-1.245-.658-1.682q-.645-.643-1.6-.644h-8.19c-.891 0-1.591-.259-2.146-.788-.537-.514-.798-1.172-.798-2.004 0-.831.224-1.408.681-1.864s1.18-.688 2.15-.688h8.308c.64 0 1.18-.225 1.61-.668.428-.442.648-.999.648-1.658s-.22-1.249-.658-1.681q-.647-.643-1.6-.644h-8.19c-.892 0-1.591-.26-2.147-.789-.536-.514-.797-1.158-.797-1.975s.224-1.408.68-1.864c.458-.457 1.181-.687 2.151-.687h8.308c.639 0 1.18-.226 1.609-.668s.648-1 .648-1.658c0-.659-.219-1.25-.657-1.682-.43-.428-.966-.644-1.6-.644H9.922c-2.169 0-3.904.61-5.15 1.816-1.259 1.221-1.898 2.831-1.898 4.787zM3.905 129.489c-.732 1.24-1.1 2.72-1.1 4.392s.382 3.229 1.133 4.575a8.17 8.17 0 0 0 3.176 3.177c1.339.749 2.864 1.129 4.539 1.129s3.209-.404 4.543-1.202c1.339-.797 2.402-1.927 3.153-3.344.747-1.408 1.124-3.018 1.124-4.782 0-.999-.182-2.057-.531-3.143-.355-1.091-.826-2.018-1.395-2.753-.378-.524-.896-.798-1.493-.798-.415 0-1.026.139-1.562.802q-.49.558-.49 1.433c0 .581.163 1.057.48 1.47.257.346.48.807.667 1.374.187.563.28 1.106.28 1.615 0 1.341-.35 2.432-1.073 3.34-.527.658-1.152 1.115-1.907 1.389v-10.356c0-.611-.196-1.13-.579-1.543a1.97 1.97 0 0 0-1.474-.634c-1.642 0-3.125.331-4.408.98a7.36 7.36 0 0 0-3.078 2.874zm2.948 4.392c0-1.11.308-1.975.942-2.643.48-.505 1.064-.855 1.782-1.076v7.953a4.1 4.1 0 0 1-1.754-1.216c-.653-.764-.97-1.754-.97-3.018"/><path fill="#1F1F1F" d="M3.97 100.727c-.774 1.384-1.161 2.932-1.161 4.604s.392 3.21 1.166 4.58a8.8 8.8 0 0 0 3.186 3.253c1.343.793 2.855 1.197 4.496 1.197h12.086c.663 0 1.213-.226 1.633-.678.415-.442.625-.995.625-1.648 0-.654-.215-1.24-.635-1.673-.42-.432-.965-.653-1.623-.653h-4.865c.317-.433.597-.904.826-1.399.513-1.1.774-2.306.774-3.575 0-1.581-.392-3.037-1.162-4.325-.764-1.283-1.837-2.307-3.19-3.042-1.339-.726-2.84-1.096-4.473-1.096s-3.149.4-4.492 1.182a8.6 8.6 0 0 0-3.195 3.273zm3.601 6.901c-.406-.687-.601-1.437-.601-2.297s.2-1.615.601-2.297.961-1.23 1.67-1.629c.714-.404 1.53-.606 2.416-.606.887 0 1.694.202 2.398.606.7.399 1.26.946 1.66 1.629.397.677.602 1.451.602 2.297s-.196 1.61-.601 2.297a4.3 4.3 0 0 1-1.652 1.61c-.704.394-1.511.591-2.407.591-.895 0-1.707-.202-2.425-.596a4.35 4.35 0 0 1-1.665-1.61zM8.85 90.698c0 .653.21 1.206.624 1.648.42.452.97.678 1.633.678h7.118c.64 0 1.18-.226 1.61-.668.428-.442.648-1 .648-1.658s-.22-1.245-.658-1.682q-.647-.643-1.6-.644h-7.118c-.658 0-1.203.221-1.623.653s-.635.995-.635 1.673"/><path fill="#F6AC36" d="M0 120.276c0 1.264.999 2.293 2.226 2.293h16.032c1.227 0 2.225-1.029 2.225-2.293 0-1.263-.998-2.292-2.225-2.292H2.226c-1.227 0-2.225 1.029-2.225 2.292"/><path fill="#1F1F1F" d="m16.914 70.51-6.33 5.314-3.866-4.901a1.97 1.97 0 0 0-1.59-.774 1.96 1.96 0 0 0-1.414.591c-.476.409-.728.966-.728 1.615 0 .562.205 1.081.57 1.456l4.738 5.887H5.09c-1.227 0-2.225 1.028-2.225 2.292s.998 2.292 2.225 2.292h13.168c1.227 0 2.225-1.028 2.225-2.292s-.998-2.292-2.225-2.292h-4.329l-.462-.538 6.185-5.157a2.13 2.13 0 0 0 .821-1.706q-.001-.786-.527-1.47c-.438-.539-1.017-.827-1.67-.827-.536 0-1.007.178-1.366.514z"/><path fill="#fff" d="M17.964 121.915a.2.2 0 0 0 .196.202c1.567 0 1.786-1.495 1.786-1.509.014-.106-.056-.211-.163-.226a.193.193 0 0 0-.22.168c-.004.048-.181 1.168-1.403 1.168a.2.2 0 0 0-.196.202zM17.549 121.915a.204.204 0 0 0-.2-.207c-.112 0-.201.093-.201.207s.09.207.2.207.2-.093.2-.207"/></svg>
